localPackages/DesignSystem/Sources/DesignSystem/Resources/Assets.xcassets/IconSet/ic-envelope-magnifying-glass.imageset/ic-envelope-magnifying-glass.svg

<svg width="24" height="24" viewBox="0 0 24 24" fill="none" xmlns="http://www.w3.org/2000/svg">
<g id="ic-envelope-magnifying-glass">
<path id="Icon" fill-rule="evenodd" clip-rule="evenodd" d="M4.35 3H4.31903C3.7153 2.99999 3.21703 2.99998 2.81113 3.03315C2.38956 3.06759 2.00203 3.14151 1.63803 3.32698C1.07354 3.6146 0.614601 4.07354 0.326981 4.63803C0.141513 5.00203 0.0675898 5.38956 0.0331459 5.81113C-1.71587e-05 6.21703 -9.23184e-06 6.7153 3.22931e-07 7.31903V7.35V15.15V15.181C-9.23184e-06 15.7847 -1.71587e-05 16.283 0.0331459 16.6889C0.0675898 17.1104 0.141513 17.498 0.326981 17.862C0.614601 18.4265 1.07354 18.8854 1.63803 19.173C2.00203 19.3585 2.38956 19.4324 2.81113 19.4669C3.217 19.5 3.71524 19.5 4.31892 19.5H4.31901H4.35H12V18H4.35C3.70757 18 3.27085 17.9994 2.93328 17.9718C2.60447 17.945 2.43631 17.8963 2.31902 17.8365C2.03677 17.6927 1.8073 17.4632 1.66349 17.181C1.60372 17.0637 1.55503 16.8955 1.52816 16.5667C1.50058 16.2292 1.5 15.7924 1.5 15.15V8.05843L9.32846 12.6434C10.0478 13.0822 10.9522 13.0822 11.6715 12.6435L19.5 8.05843V12H21V7.35V7.31901C21 6.71529 21 6.21702 20.9669 5.81113C20.9324 5.38956 20.8585 5.00203 20.673 4.63803C20.3854 4.07354 19.9265 3.6146 19.362 3.32698C18.998 3.14151 18.6104 3.06759 18.1889 3.03315C17.783 2.99998 17.2847 2.99999 16.681 3H16.65H4.35ZM19.4919 6.32484C19.4877 6.17942 19.4814 6.05038 19.4718 5.93328C19.445 5.60447 19.3963 5.43631 19.3365 5.31902C19.1927 5.03677 18.9632 4.8073 18.681 4.66349C18.5637 4.60372 18.3955 4.55503 18.0667 4.52816C17.7292 4.50058 17.2924 4.5 16.65 4.5H4.35C3.70757 4.5 3.27085 4.50058 2.93328 4.52816C2.60447 4.55503 2.43631 4.60372 2.31901 4.66349C2.03677 4.8073 1.8073 5.03677 1.66349 5.31901C1.60372 5.43631 1.55503 5.60447 1.52816 5.93328C1.5186 6.05038 1.51228 6.17942 1.5081 6.32484L10.0929 11.3528L10.1 11.357L10.1069 11.3613C10.348 11.5096 10.652 11.5096 10.8931 11.3613L10.9 11.357L10.9071 11.3528L19.4919 6.32484ZM18 21C19.6569 21 21 19.6569 21 18C21 16.3431 19.6569 15 18 15C16.3431 15 15 16.3431 15 18C15 19.6569 16.3431 21 18 21ZM21.668 20.6075C22.1919 19.8719 22.5 18.9719 22.5 18C22.5 15.5147 20.4853 13.5 18 13.5C15.5147 13.5 13.5 15.5147 13.5 18C13.5 20.4853 15.5147 22.5 18 22.5C18.9718 22.5 19.8717 22.1919 20.6073 21.6682L22.7197 23.78C23.0127 24.0729 23.4876 24.0728 23.7804 23.7798C24.0733 23.4869 24.0732 23.012 23.7803 22.7192L21.668 20.6075Z" fill="#0F0F0F"/>
</g>
</svg>

<svg xmlns="http://www.w3.org/2000/svg" width="24" height="24" viewBox="0 0 24 24">
  <g class="ic-envelope-magnifying-glass">
    <path fill-rule="evenodd" d="M4.35 3h-.031c-.604 0-1.102 0-1.508.033-.421.035-.809.109-1.173.294A3 3 0 0 0 .327 4.638c-.185.364-.26.752-.294 1.173C0 6.217 0 6.715 0 7.32v7.861c0 .604 0 1.102.033 1.508.035.421.109.809.294 1.173a3 3 0 0 0 1.311 1.311c.364.186.752.26 1.173.294.406.033.904.033 1.508.033H12V18H4.35c-.642 0-1.08 0-1.417-.028-.329-.027-.497-.076-.614-.136a1.5 1.5 0 0 1-.656-.655c-.06-.117-.108-.286-.135-.614-.027-.338-.028-.775-.028-1.417V8.058l7.828 4.585a2.25 2.25 0 0 0 2.344 0L19.5 8.058V12H21V7.319c0-.604 0-1.102-.033-1.508-.035-.421-.108-.809-.294-1.173a3 3 0 0 0-1.311-1.311c-.364-.185-.752-.26-1.173-.294C17.783 3 17.285 3 16.68 3H4.35Zm15.142 3.325a7.466 7.466 0 0 0-.02-.392c-.027-.329-.076-.497-.136-.614a1.5 1.5 0 0 0-.655-.656c-.117-.06-.286-.108-.614-.135-.338-.027-.775-.028-1.417-.028H4.35c-.642 0-1.08 0-1.417.028-.329.027-.497.076-.614.135a1.5 1.5 0 0 0-.656.656c-.06.117-.108.285-.135.614a7.49 7.49 0 0 0-.02.392l8.585 5.028.007.004.007.004a.75.75 0 0 0 .786 0l.007-.004.007-.004 8.585-5.028ZM18 21a3 3 0 1 0 0-6 3 3 0 0 0 0 6Zm3.668-.392a4.5 4.5 0 1 0-1.06 1.06l2.112 2.112a.75.75 0 1 0 1.06-1.06l-2.112-2.112Z" class="Icon"/>
  </g>
</svg>
